X: 267
T: Pa puoyi
L: 1/8
M: 6/8
K: G
d e d c c d [I:setbarnb 1]| 
e d BA3 | 
d d g e c d | 
e d BA3 | 
A d d g e d | 
d B AG3 | 
B A G D G B | 
A A ED3 |]

@@@ Tune index: 9141
